X:95
T:Y Gerwyn - The Tub
M:3/4
L:1/8
Q:100
C:John Tose
R:Hanter dro
K:G
EE/2F/2 GA GF | EE/2F/2 GE B2 | EE/2F/2 GA GF |
EE B2 ^c :||: AA/2B/2 =cd cB | AA/2B/2 AG E2 | A
A/2B/2 cd cB | AA B2 G2 :||
